X:1
T:Metzler’s Redhead, CM
T:Richard Redhead, 1859
T:Metzler’s Redhead, CM
T:Public Domain
C:Richard Redhead, 1859
Z:Public Domain
%%score ( 1 2 ) ( 3 4 )
L:1/8
M:4/4
K:D
V:1 treble 
V:2 treble 
V:3 bass 
V:4 bass 
V:1
 [DF]2 | [CE]2 D2 [Dd]2 [DA]2 | [DB]2 [EB]2 [FA]2 [FA]2 | [DB]2 [Gc]2 d2 z E x | [DB]6 [DB]2 | %5
 [DB]2 [DA]2 [DB]2 (AG) | [DF]2 [CE]2 [DA]2 [B,D]2 | (B,C) [DF]2 [DE]2 [CE]2 x | D6 |] %9
V:2
 x2 | x2 D2 x4 | x8 | x4 F3 d2 | x8 | x6 E2 | x8 | G2 x7 | D6 |] %9
V:3
 [D,A,]2 | [A,,A,]2 [B,,F,]2 [F,,A,]2 [F,D]2 | [G,B,]2 [G,C]2 [D,D]2 [D,D]2 | %3
 [G,D]2 (CB,) [F,B,]2 [F,,^A,]2 x | [B,,B,]6 G,2 | G,2 [D,F,]2 G,2 [E,B,]2 | %6
 A,2 z G, [F,A,]2 [G,B,]2 | [E,G,]2 [D,A,]2 A,,2 z G, x | [D,F,]6 |] %9
V:4
 x2 | x8 | x8 | x2 E,2 x5 | x6 G,2 | G,2 G,2 x4 | A,3 A,2 x3 | x4 A,3 A,,2 | x6 |] %9

